public/piece/spatial/wB.svg

<?xml version="1.0" encoding="UTF-8" standalone="no"?>
<svg width="700pt" height="700pt" id="bishop" viewBox="0 0 933.333 933.333" sodipodi:version="0.32" inkscape:version="1.1.2 (0a00cf5339, 2022-02-04)" version="1.0" inkscape:export-filename="/home/maurizio/out/wb.png" inkscape:export-xdpi="90" inkscape:export-ydpi="90" sodipodi:docname="b.svg" xmlns:inkscape="http://www.inkscape.org/namespaces/inkscape" xmlns:sodipodi="http://sodipodi.sourceforge.net/DTD/sodipodi-0.dtd" xmlns:xlink="http://www.w3.org/1999/xlink" xmlns="http://www.w3.org/2000/svg" xmlns:svg="http://www.w3.org/2000/svg" xmlns:rdf="http://www.w3.org/1999/02/22-rdf-syntax-ns#" xmlns:cc="http://creativecommons.org/ns#" xmlns:dc="http://purl.org/dc/elements/1.1/">
  <style id="style-base">
    .base { 
      fill-opacity:1;
      fill-rule:evenodd;
      stroke-miterlimit:4;
      stroke-dasharray:none;
      stroke-linecap:round;
      stroke-linejoin:round;
      stroke-opacity:1
    }
    .shadow {
      stroke:none;
      filter:url(#filterBlur);
    }
  </style>
  <style id="stroke-medium">.stroke-medium {stroke-width: 20; }</style>
  <style id="stroke-boundary">.stroke-boundary {stroke-width: 35; }</style>
  <style id="stroke-color">.stroke-color {stroke: black; }</style>
  <style id="fill-color">.fill-color {fill: white; }</style>
  <defs id="defs36222">
    <linearGradient id="fillGradient">
      <stop style="stop-color: white; stop-opacity: 1;" offset="0" id="stop0"/>
      <stop style="stop-color: rgb(191, 211, 215); stop-opacity: 1;" offset="1" id="stop1"/>
    </linearGradient>
    <linearGradient inkscape:collect="always" xlink:href="#fillGradient" id="hat-back-gradient" gradientUnits="userSpaceOnUse" x1="130.98332" y1="444.83487" x2="720.01697" y2="623.16821" gradientTransform="matrix(1.1402574,0,0,1.0926859,-36.622756,-49.02835)"/>
    <linearGradient inkscape:collect="always" xlink:href="#fillGradient" id="right-shoulder-gradient" gradientUnits="userSpaceOnUse" x1="130.98332" y1="444.83487" x2="720.01697" y2="623.16821" gradientTransform="matrix(1.0836502,-0.02393683,0.02393683,1.0836502,-20.096124,-4.0251195)"/>
    <linearGradient inkscape:collect="always" xlink:href="#fillGradient" id="left-shoulder-gradient" gradientUnits="userSpaceOnUse" x1="130.98332" y1="444.83487" x2="720.01697" y2="623.16821" gradientTransform="matrix(1.0814596,0.07290913,-0.07290913,1.0814596,68.647225,-22.462719)"/>
    <linearGradient inkscape:collect="always" xlink:href="#fillGradient" id="hat-front-gradient" gradientUnits="userSpaceOnUse" gradientTransform="matrix(1.1402574,0,0,1.0926859,-36.622756,-49.02835)" x1="130.98332" y1="444.83487" x2="720.01697" y2="623.16821"/>
    
  </defs>
  <sodipodi:namedview id="base" pagecolor="#ffffff" bordercolor="#666666" borderopacity="1.0" inkscape:pageopacity="0.0" inkscape:pageshadow="2" inkscape:zoom="1.4142136" inkscape:cx="271.17545" inkscape:cy="665.38747" inkscape:current-layer="bishop" inkscape:document-units="px" inkscape:window-width="1846" inkscape:window-height="1016" inkscape:window-x="0" inkscape:window-y="0" inkscape:showpageshadow="2" inkscape:pagecheckerboard="0" inkscape:deskcolor="#d1d1d1" showgrid="false" inkscape:window-maximized="1"/>
  <metadata id="metadata36225">
    <rdf:RDF>
      <cc:Work rdf:about="">
        <dc:format>image/svg+xml</dc:format>
        <dc:type rdf:resource="http://purl.org/dc/dcmitype/StillImage"/>
        <dc:creator>
          <cc:Agent>
            <dc:title>Maurizio Monge</dc:title>
          </cc:Agent>
        </dc:creator>
        <dc:rights>
          <cc:Agent>
            <dc:title>Maurizio Monge</dc:title>
          </cc:Agent>
        </dc:rights>
        <cc:license rdf:resource="http://creativecommons.org/licenses/GPL/2.0/"/>
      </cc:Work>
      <cc:License rdf:about="http://creativecommons.org/licenses/GPL/2.0/">
        <cc:permits rdf:resource="http://web.resource.org/cc/Reproduction"/>
        <cc:permits rdf:resource="http://web.resource.org/cc/Distribution"/>
        <cc:requires rdf:resource="http://web.resource.org/cc/Notice"/>
        <cc:permits rdf:resource="http://web.resource.org/cc/DerivativeWorks"/>
        <cc:requires rdf:resource="http://web.resource.org/cc/ShareAlike"/>
        <cc:requires rdf:resource="http://web.resource.org/cc/SourceCode"/>
      </cc:License>
    </rdf:RDF>
  </metadata>
  
  <path id="boundary" style="fill:none" class="base stroke-color stroke-boundary" d="M 448.98047 48 C 447.64439 48.08343 446.15069 48.287653 444.49023 48.613281 C 402.59089 56.830137 403.36088 78.677001 425.01758 113.03906 C 453.68583 71.737464 468.72165 46.76728 448.98047 48 z M 425.01758 113.03906 C 393.53783 158.39112 345.60366 223.45508 308.84375 295.58984 C 237.76987 435.05965 221.55803 571.03504 331.19922 703.63867 C 348.29184 714.17384 350.17407 750.04203 336.9043 781.17383 L 411.40625 780.66211 C 293.25471 822.16736 76.736242 842.68704 85.378906 881.04688 C 85.378906 881.04688 319.61271 895.02025 399.50781 846.68555 C 427.61188 829.68325 446.34939 801.60612 457.35352 780.3457 L 496.86523 780.07422 C 503.8335 799.43406 514.2487 819.67719 529.42969 831.13672 C 612.88377 894.13299 851.53906 879.59375 851.53906 879.59375 C 852.2986 827.03884 667.4769 826.66905 554.59766 779.67773 L 596.41992 779.39062 C 582.69643 748.57907 584.98439 711.63023 608.73828 692.26758 C 622.64182 666.75791 632.19038 641.08831 638.21875 615.49219 C 673.63395 527.31731 690.51055 412.94945 645.30078 312.54492 C 609.5353 233.11482 563.57432 175.01795 542.44336 135.32617 C 528.13149 154.22992 510.84168 176.86965 492.93164 202.05078 C 464.80345 166.50985 439.96433 136.75468 425.01758 113.03906 z M 542.44336 135.32617 C 575.49957 91.664057 592.85933 67.063062 566.31055 72.269531 C 524.40258 80.488073 524.21187 101.08068 542.44336 135.32617 z "/>
  <path sodipodi:nodetypes="ccsc" class="base stroke-color stroke-medium" style="fill:url(#left-shoulder-gradient)" d="m 469.75049,751.53813 c -75.953,62.8607 -394.82103,83.12855 -384.371216,129.50928 0,0 234.232686,13.97366 314.127866,-34.36109 49.83751,-30.15053 70.24335,-95.14819 70.24335,-95.14819 z" id="left-shoulder"/>
  <path id="right-shoulder" d="m 484.46219,730.27925 c 71.10282,99.97626 368.03964,82.74001 367.0775,149.31372 0,0 -238.6565,14.53966 -322.11076,-48.45673 -35.31391,-26.6571 -44.96674,-100.85699 -44.96674,-100.85699 z" class="base stroke-color stroke-medium" style="fill:url(#right-shoulder-gradient)" sodipodi:nodetypes="ccsc"/>
  <path class="base stroke-color stroke-medium" style="fill:url(#hat-back-gradient)" d="M 566.30989,72.26992 C 619.44449,61.849724 496.72436,170.7992 424.22166,313.07278 635.1966,333.98056 576.49594,606.1297 610.41441,673.43699 662.13412,582.54631 701.26217,436.82554 645.30153,312.54483 578.67789,164.58312 475.82881,90.0141 566.30989,72.26992 Z" id="hat-back" sodipodi:nodetypes="sccss"/>
  <path class="base stroke-color stroke-medium" style="fill:url(#hat-front-gradient)" d="m 444.48939,48.612407 c 53.1346,-10.420194 -63.14218,104.703813 -135.64486,246.977403 -71.07409,139.47023 -87.28695,275.44502 22.35457,408.04904 17.09268,10.5352 18.97442,46.40342 5.70459,77.53531 l 259.51587,-1.7828 C 582.69601,748.57969 584.98444,711.6306 608.73842,692.26789 688.40697,546.09509 627.86247,394.62074 552.33134,282.3312 461.22281,146.88328 354.00832,66.356589 444.48939,48.612407 Z M 429.74725,370.28645 c -2.29804,92.24636 36.38358,158.97567 35.10195,264.8683 -36.7557,21.14764 -28.27413,-95.53004 -52.62473,-122.60451 -21.33443,-23.72088 -85.79698,-18.79808 -68.85612,-51.90533 76.57084,-0.49689 125.41931,28.96733 201.44984,17.07461 6.75486,-20.31951 -49.36749,-22.88862 -65.19655,-36.02559 -21.28497,-17.66499 -25.34163,-85.43147 -49.87439,-71.40748 z" id="hat-front" sodipodi:nodetypes="ssccccssccsccsc"/>
</svg>

<svg xmlns="http://www.w3.org/2000/svg" xmlns:xlink="http://www.w3.org/1999/xlink" id="bishop" width="700pt" height="700pt" version="1.0" viewBox="0 0 933.333 933.333"><style id="style-base">.base{fill-opacity:1;fill-rule:evenodd;stroke-miterlimit:4;stroke-dasharray:none;stroke-linecap:round;stroke-linejoin:round;stroke-opacity:1}.stroke-medium{stroke-width:20}.stroke-color{stroke:#000}</style><defs id="defs36222"><linearGradient id="fillGradient"><stop id="stop0" offset="0" style="stop-color:white;stop-opacity:1"/><stop id="stop1" offset="1" style="stop-color:#bfd3d7;stop-opacity:1"/></linearGradient><linearGradient xlink:href="#fillGradient" id="hat-back-gradient" x1="130.983" x2="720.017" y1="444.835" y2="623.168" gradientTransform="matrix(1.14026 0 0 1.09269 -36.623 -49.028)" gradientUnits="userSpaceOnUse"/><linearGradient xlink:href="#fillGradient" id="right-shoulder-gradient" x1="130.983" x2="720.017" y1="444.835" y2="623.168" gradientTransform="scale(1.08391) rotate(-1.265 -177.406 837.59)" gradientUnits="userSpaceOnUse"/><linearGradient xlink:href="#fillGradient" id="left-shoulder-gradient" x1="130.983" x2="720.017" y1="444.835" y2="623.168" gradientTransform="scale(1.08391) rotate(3.857 339.41 930.117)" gradientUnits="userSpaceOnUse"/><linearGradient xlink:href="#fillGradient" id="hat-front-gradient" x1="130.983" x2="720.017" y1="444.835" y2="623.168" gradientTransform="matrix(1.14026 0 0 1.09269 -36.623 -49.028)" gradientUnits="userSpaceOnUse"/></defs><path id="boundary" d="M448.98 48c-1.336.083-2.83.288-4.49.613-41.9 8.217-41.13 30.064-19.472 64.426C453.686 71.737 468.722 46.767 448.98 48zm-23.962 65.04c-31.48 45.351-79.414 110.415-116.174 182.55-71.074 139.47-87.286 275.445 22.355 408.049 17.093 10.535 18.975 46.403 5.705 77.535l74.502-.512C293.255 822.167 76.736 842.687 85.38 881.047c0 0 234.234 13.973 314.129-34.361 28.104-17.003 46.841-45.08 57.846-66.34l39.511-.272c6.969 19.36 17.384 39.603 32.565 51.063 83.454 62.996 322.11 48.457 322.11 48.457.759-52.555-184.063-52.925-296.942-99.916l41.822-.287c-13.724-30.812-11.436-67.76 12.318-87.123 13.904-25.51 23.452-51.18 29.48-76.776 35.416-88.175 52.293-202.543 7.083-302.947-35.766-79.43-81.727-137.527-102.858-177.219-14.312 18.904-31.601 41.544-49.511 66.725-28.129-35.541-52.968-65.296-67.914-89.012zm117.425 22.286C575.5 91.664 592.86 67.063 566.311 72.27c-41.908 8.218-42.1 28.81-23.868 63.056z" class="base stroke-color" style="fill:none;stroke-width:35"/><path id="left-shoulder" d="M469.75 751.538c-75.953 62.86-394.82 83.129-384.37 129.51 0 0 234.232 13.973 314.127-34.362 49.838-30.15 70.243-95.148 70.243-95.148z" class="base stroke-color stroke-medium" style="fill:url(#left-shoulder-gradient)"/><path id="right-shoulder" d="M484.462 730.28c71.103 99.976 368.04 82.74 367.078 149.313 0 0-238.657 14.54-322.111-48.457-35.314-26.657-44.967-100.857-44.967-100.857z" class="base stroke-color stroke-medium" style="fill:url(#right-shoulder-gradient)"/><path id="hat-back" d="M566.31 72.27c53.134-10.42-69.586 98.53-142.088 240.803C635.197 333.98 576.496 606.13 610.414 673.437c51.72-90.89 90.848-236.611 34.888-360.892C578.678 164.583 475.829 90.015 566.31 72.27Z" class="base stroke-color stroke-medium" style="fill:url(#hat-back-gradient)"/><path id="hat-front" d="M444.49 48.612c53.134-10.42-63.143 104.704-135.645 246.978-71.075 139.47-87.287 275.445 22.354 408.049 17.093 10.535 18.975 46.403 5.705 77.535l259.516-1.783c-13.724-30.811-11.436-67.76 12.318-87.123 79.669-146.173 19.124-297.647-56.407-409.937C461.223 146.883 354.008 66.357 444.49 48.612Zm-14.743 321.674c-2.298 92.247 36.384 158.976 35.102 264.869-36.755 21.147-28.274-95.53-52.625-122.605-21.334-23.72-85.797-18.798-68.856-51.905 76.571-.497 125.42 28.967 201.45 17.075 6.755-20.32-49.367-22.89-65.196-36.026-21.285-17.665-25.342-85.432-49.875-71.408z" class="base stroke-color stroke-medium" style="fill:url(#hat-front-gradient)"/></svg>
